X: 27020
T: Miss Gordon Of Gight
R: reel
M: 4/4
K: Dminor
|:A,DFA dafd|c/d/ecA GECE|DFAG/F/ EGcA|1 GECE FDD2:|2 GECE FDDe||
fac'a bagf|efga gece|fac'b/a/ bagf|ecge d2de|
fac'a bagf|efga gecg|a>gfe defd|cAGE D2D2||

